X: 35112
T: Rolling Waves, The
R: jig
M: 6/8
K: Dmajor
|:F3 EDE|F2D DED|EFE EFA|d2e fdA|
F3 EDE|F2D DED|AFE EFA|1 BAB c2A:|2 BAB d2B||
|:ABd e2f|d2c B2A|ABd e2f|d2A B3|
ABd ede|fdB BAF|AFE EFA|1 BAB d2B:|2 BAB d2A||

